images/3235163.svg

<?xml version="1.0" encoding="UTF-8"?>
<svg xmlns="http://www.w3.org/2000/svg" xmlns:xlink="http://www.w3.org/1999/xlink" width="300pt" height="300pt" viewBox="0 0 300 300" version="1.1">
<defs>
<g>
<symbol overflow="visible" id="glyph0-0">
<path style="stroke:none;" d="M 0.453125 1.59375 L 0.453125 -6.34375 L 4.953125 -6.34375 L 4.953125 1.59375 Z M 0.953125 1.09375 L 4.453125 1.09375 L 4.453125 -5.84375 L 0.953125 -5.84375 Z M 0.953125 1.09375 "/>
</symbol>
<symbol overflow="visible" id="glyph0-1">
<path style="stroke:none;" d="M 3.546875 -5.953125 C 2.898438 -5.953125 2.382812 -5.710938 2 -5.234375 C 1.625 -4.753906 1.4375 -4.101562 1.4375 -3.28125 C 1.4375 -2.445312 1.625 -1.789062 2 -1.3125 C 2.382812 -0.832031 2.898438 -0.59375 3.546875 -0.59375 C 4.191406 -0.59375 4.703125 -0.832031 5.078125 -1.3125 C 5.453125 -1.789062 5.640625 -2.445312 5.640625 -3.28125 C 5.640625 -4.101562 5.453125 -4.753906 5.078125 -5.234375 C 4.703125 -5.710938 4.191406 -5.953125 3.546875 -5.953125 Z M 3.546875 -6.6875 C 4.460938 -6.6875 5.195312 -6.375 5.75 -5.75 C 6.300781 -5.132812 6.578125 -4.3125 6.578125 -3.28125 C 6.578125 -2.238281 6.300781 -1.410156 5.75 -0.796875 C 5.195312 -0.179688 4.460938 0.125 3.546875 0.125 C 2.617188 0.125 1.878906 -0.179688 1.328125 -0.796875 C 0.773438 -1.410156 0.5 -2.238281 0.5 -3.28125 C 0.5 -4.3125 0.773438 -5.132812 1.328125 -5.75 C 1.878906 -6.375 2.617188 -6.6875 3.546875 -6.6875 Z M 3.546875 -6.6875 "/>
</symbol>
<symbol overflow="visible" id="glyph0-2">
<path style="stroke:none;" d="M 0.890625 -6.5625 L 2.078125 -6.5625 L 4.984375 -1.078125 L 4.984375 -6.5625 L 5.84375 -6.5625 L 5.84375 0 L 4.65625 0 L 1.75 -5.484375 L 1.75 0 L 0.890625 0 Z M 0.890625 -6.5625 "/>
</symbol>
<symbol overflow="visible" id="glyph0-3">
<path style="stroke:none;" d="M 0.890625 -6.5625 L 4.65625 -6.5625 L 4.65625 -5.8125 L 1.765625 -5.8125 L 1.765625 -3.875 L 4.375 -3.875 L 4.375 -3.140625 L 1.765625 -3.140625 L 1.765625 0 L 0.890625 0 Z M 0.890625 -6.5625 "/>
</symbol>
</g>
</defs>
<g id="surface34293">
<rect x="0" y="0" width="300" height="300" style="fill:rgb(100%,100%,100%);fill-opacity:1;stroke:none;"/>
<path style="fill:none;stroke-width:1.2;stroke-linecap:butt;stroke-linejoin:miter;stroke:rgb(0%,0%,0%);stroke-opacity:1;stroke-miterlimit:10;" d="M 42.71875 100.703125 L 38.984375 110.667969 "/>
<path style="fill:none;stroke-width:1.2;stroke-linecap:butt;stroke-linejoin:miter;stroke:rgb(100%,0%,0%);stroke-opacity:1;stroke-miterlimit:10;" d="M 38.984375 110.667969 L 35.25 120.628906 "/>
<path style="fill:none;stroke-width:1.2;stroke-linecap:butt;stroke-linejoin:miter;stroke:rgb(100%,0%,0%);stroke-opacity:1;stroke-miterlimit:10;" d="M 35.25 120.628906 L 42.011719 128.847656 "/>
<path style="fill:none;stroke-width:1.2;stroke-linecap:butt;stroke-linejoin:miter;stroke:rgb(0%,0%,0%);stroke-opacity:1;stroke-miterlimit:10;" d="M 42.011719 128.847656 L 48.773438 137.0625 "/>
<path style=" stroke:none;fill-rule:nonzero;fill:rgb(100%,100%,100%);fill-opacity:1;" d="M 31.25 115.128906 L 39.25 115.128906 L 39.25 126.128906 L 31.25 126.128906 Z M 31.25 115.128906 "/>
<g style="fill:rgb(100%,0%,0%);fill-opacity:1;">
  <use xlink:href="#glyph0-1" x="31.25" y="123.791992"/>
</g>
<path style="fill:none;stroke-width:1.2;stroke-linecap:butt;stroke-linejoin:miter;stroke:rgb(0%,0%,0%);stroke-opacity:1;stroke-miterlimit:10;" d="M 48.773438 137.0625 L 69.765625 133.566406 "/>
<path style="fill:none;stroke-width:1.2;stroke-linecap:butt;stroke-linejoin:miter;stroke:rgb(0%,0%,0%);stroke-opacity:1;stroke-miterlimit:10;" d="M 51.695312 141.652344 L 68.488281 138.855469 "/>
<path style="fill:none;stroke-width:1.2;stroke-linecap:butt;stroke-linejoin:miter;stroke:rgb(0%,0%,0%);stroke-opacity:1;stroke-miterlimit:10;" d="M 41.304688 156.992188 L 48.773438 137.0625 "/>
<path style="fill:none;stroke-width:1.2;stroke-linecap:butt;stroke-linejoin:miter;stroke:rgb(0%,0%,0%);stroke-opacity:1;stroke-miterlimit:10;" d="M 69.765625 133.566406 L 83.289062 150 "/>
<path style="fill:none;stroke-width:1.2;stroke-linecap:butt;stroke-linejoin:miter;stroke:rgb(0%,0%,0%);stroke-opacity:1;stroke-miterlimit:10;" d="M 83.289062 150 L 75.820312 169.925781 "/>
<path style="fill:none;stroke-width:1.2;stroke-linecap:butt;stroke-linejoin:miter;stroke:rgb(0%,0%,0%);stroke-opacity:1;stroke-miterlimit:10;" d="M 77.851562 150.234375 L 71.878906 166.175781 "/>
<path style="fill:none;stroke-width:1.2;stroke-linecap:butt;stroke-linejoin:miter;stroke:rgb(0%,0%,0%);stroke-opacity:1;stroke-miterlimit:10;" d="M 75.820312 169.925781 L 54.828125 173.421875 "/>
<path style="fill:none;stroke-width:1.2;stroke-linecap:butt;stroke-linejoin:miter;stroke:rgb(0%,0%,0%);stroke-opacity:1;stroke-miterlimit:10;" d="M 75.820312 169.925781 L 82.582031 178.144531 "/>
<path style="fill:none;stroke-width:1.2;stroke-linecap:butt;stroke-linejoin:miter;stroke:rgb(100%,0%,0%);stroke-opacity:1;stroke-miterlimit:10;" d="M 82.582031 178.144531 L 89.34375 186.359375 "/>
<path style="fill:none;stroke-width:1.2;stroke-linecap:butt;stroke-linejoin:miter;stroke:rgb(0%,0%,0%);stroke-opacity:1;stroke-miterlimit:10;" d="M 54.828125 173.421875 L 41.304688 156.992188 "/>
<path style="fill:none;stroke-width:1.2;stroke-linecap:butt;stroke-linejoin:miter;stroke:rgb(0%,0%,0%);stroke-opacity:1;stroke-miterlimit:10;" d="M 57.339844 168.597656 L 46.523438 155.453125 "/>
<path style="fill:none;stroke-width:1.2;stroke-linecap:butt;stroke-linejoin:miter;stroke:rgb(100%,0%,0%);stroke-opacity:1;stroke-miterlimit:10;" d="M 89.34375 186.359375 L 99.839844 184.613281 "/>
<path style="fill:none;stroke-width:1.2;stroke-linecap:butt;stroke-linejoin:miter;stroke:rgb(0%,0%,0%);stroke-opacity:1;stroke-miterlimit:10;" d="M 99.839844 184.613281 L 110.335938 182.863281 "/>
<path style=" stroke:none;fill-rule:nonzero;fill:rgb(100%,100%,100%);fill-opacity:1;" d="M 85.34375 180.859375 L 93.34375 180.859375 L 93.34375 191.859375 L 85.34375 191.859375 Z M 85.34375 180.859375 "/>
<g style="fill:rgb(100%,0%,0%);fill-opacity:1;">
  <use xlink:href="#glyph0-1" x="85.34375" y="189.522461"/>
</g>
<path style="fill:none;stroke-width:1.2;stroke-linecap:butt;stroke-linejoin:miter;stroke:rgb(0%,0%,0%);stroke-opacity:1;stroke-miterlimit:10;" d="M 110.335938 182.863281 L 117.097656 191.082031 "/>
<path style="fill:none;stroke-width:1.2;stroke-linecap:butt;stroke-linejoin:miter;stroke:rgb(0%,0%,100%);stroke-opacity:1;stroke-miterlimit:10;" d="M 117.097656 191.082031 L 123.859375 199.296875 "/>
<path style="fill:none;stroke-width:1.2;stroke-linecap:butt;stroke-linejoin:miter;stroke:rgb(0%,0%,0%);stroke-opacity:1;stroke-miterlimit:10;" d="M 115.554688 181.324219 L 120.960938 187.898438 "/>
<path style="fill:none;stroke-width:1.2;stroke-linecap:butt;stroke-linejoin:miter;stroke:rgb(0%,0%,100%);stroke-opacity:1;stroke-miterlimit:10;" d="M 120.960938 187.898438 L 126.371094 194.472656 "/>
<path style="fill:none;stroke-width:1.2;stroke-linecap:butt;stroke-linejoin:miter;stroke:rgb(0%,0%,100%);stroke-opacity:1;stroke-miterlimit:10;" d="M 117.804688 162.9375 L 114.070312 172.902344 "/>
<path style="fill:none;stroke-width:1.2;stroke-linecap:butt;stroke-linejoin:miter;stroke:rgb(0%,0%,0%);stroke-opacity:1;stroke-miterlimit:10;" d="M 114.070312 172.902344 L 110.335938 182.863281 "/>
<path style="fill:none;stroke-width:1.2;stroke-linecap:butt;stroke-linejoin:miter;stroke:rgb(0%,0%,100%);stroke-opacity:1;stroke-miterlimit:10;" d="M 123.859375 199.296875 L 134.355469 197.550781 "/>
<path style="fill:none;stroke-width:1.2;stroke-linecap:butt;stroke-linejoin:miter;stroke:rgb(0%,0%,0%);stroke-opacity:1;stroke-miterlimit:10;" d="M 134.355469 197.550781 L 144.851562 195.800781 "/>
<path style=" stroke:none;fill-rule:nonzero;fill:rgb(100%,100%,100%);fill-opacity:1;" d="M 120.859375 193.796875 L 127.859375 193.796875 L 127.859375 204.796875 L 120.859375 204.796875 Z M 120.859375 193.796875 "/>
<g style="fill:rgb(0%,0%,100%);fill-opacity:1;">
  <use xlink:href="#glyph0-2" x="120.859375" y="202.459961"/>
</g>
<path style="fill:none;stroke-width:1.2;stroke-linecap:butt;stroke-linejoin:miter;stroke:rgb(0%,0%,0%);stroke-opacity:1;stroke-miterlimit:10;" d="M 144.851562 195.800781 L 152.320312 175.875 "/>
<path style="fill:none;stroke-width:1.2;stroke-linecap:butt;stroke-linejoin:miter;stroke:rgb(0%,0%,0%);stroke-opacity:1;stroke-miterlimit:10;" d="M 140.90625 192.050781 L 146.882812 176.109375 "/>
<path style="fill:none;stroke-width:1.2;stroke-linecap:butt;stroke-linejoin:miter;stroke:rgb(0%,0%,0%);stroke-opacity:1;stroke-miterlimit:10;" d="M 152.320312 175.875 L 138.796875 159.441406 "/>
<path style="fill:none;stroke-width:1.2;stroke-linecap:butt;stroke-linejoin:miter;stroke:rgb(0%,0%,100%);stroke-opacity:1;stroke-miterlimit:10;" d="M 173.3125 172.378906 L 162.816406 174.125 "/>
<path style="fill:none;stroke-width:1.2;stroke-linecap:butt;stroke-linejoin:miter;stroke:rgb(0%,0%,0%);stroke-opacity:1;stroke-miterlimit:10;" d="M 162.816406 174.125 L 152.320312 175.875 "/>
<path style="fill:none;stroke-width:1.2;stroke-linecap:butt;stroke-linejoin:miter;stroke:rgb(0%,0%,0%);stroke-opacity:1;stroke-miterlimit:10;" d="M 138.796875 159.441406 L 128.300781 161.191406 "/>
<path style="fill:none;stroke-width:1.2;stroke-linecap:butt;stroke-linejoin:miter;stroke:rgb(0%,0%,100%);stroke-opacity:1;stroke-miterlimit:10;" d="M 128.300781 161.191406 L 117.804688 162.9375 "/>
<path style="fill:none;stroke-width:1.2;stroke-linecap:butt;stroke-linejoin:miter;stroke:rgb(0%,0%,0%);stroke-opacity:1;stroke-miterlimit:10;" d="M 137.519531 164.730469 L 129.121094 166.128906 "/>
<path style="fill:none;stroke-width:1.2;stroke-linecap:butt;stroke-linejoin:miter;stroke:rgb(0%,0%,100%);stroke-opacity:1;stroke-miterlimit:10;" d="M 129.121094 166.128906 L 120.726562 167.527344 "/>
<path style="fill:none;stroke-width:1.2;stroke-linecap:butt;stroke-linejoin:miter;stroke:rgb(0%,0%,0%);stroke-opacity:1;stroke-miterlimit:10;" d="M 138.796875 159.441406 L 142.53125 149.476562 "/>
<path style="fill:none;stroke-width:1.2;stroke-linecap:butt;stroke-linejoin:miter;stroke:rgb(0%,0%,100%);stroke-opacity:1;stroke-miterlimit:10;" d="M 142.53125 149.476562 L 146.265625 139.515625 "/>
<path style=" stroke:none;fill-rule:nonzero;fill:rgb(100%,100%,100%);fill-opacity:1;" d="M 114.804688 157.4375 L 121.804688 157.4375 L 121.804688 168.4375 L 114.804688 168.4375 Z M 114.804688 157.4375 "/>
<g style="fill:rgb(0%,0%,100%);fill-opacity:1;">
  <use xlink:href="#glyph0-2" x="114.804688" y="166.100586"/>
</g>
<path style="fill:none;stroke-width:1.2;stroke-linecap:butt;stroke-linejoin:miter;stroke:rgb(0%,0%,100%);stroke-opacity:1;stroke-miterlimit:10;" d="M 146.265625 139.515625 L 156.761719 137.765625 "/>
<path style="fill:none;stroke-width:1.2;stroke-linecap:butt;stroke-linejoin:miter;stroke:rgb(0%,0%,0%);stroke-opacity:1;stroke-miterlimit:10;" d="M 156.761719 137.765625 L 167.257812 136.019531 "/>
<path style="fill:none;stroke-width:1.2;stroke-linecap:butt;stroke-linejoin:miter;stroke:rgb(0%,0%,100%);stroke-opacity:1;stroke-miterlimit:10;" d="M 146.265625 139.515625 L 139.503906 131.296875 "/>
<path style="fill:none;stroke-width:1.2;stroke-linecap:butt;stroke-linejoin:miter;stroke:rgb(0%,0%,0%);stroke-opacity:1;stroke-miterlimit:10;" d="M 139.503906 131.296875 L 132.742188 123.082031 "/>
<path style=" stroke:none;fill-rule:nonzero;fill:rgb(100%,100%,100%);fill-opacity:1;" d="M 143.265625 134.015625 L 150.265625 134.015625 L 150.265625 145.015625 L 143.265625 145.015625 Z M 143.265625 134.015625 "/>
<g style="fill:rgb(0%,0%,100%);fill-opacity:1;">
  <use xlink:href="#glyph0-2" x="143.265625" y="142.678711"/>
</g>
<path style="fill:none;stroke-width:1.2;stroke-linecap:butt;stroke-linejoin:miter;stroke:rgb(0%,0%,0%);stroke-opacity:1;stroke-miterlimit:10;" d="M 169.601562 136.898438 L 173.335938 126.933594 "/>
<path style="fill:none;stroke-width:1.2;stroke-linecap:butt;stroke-linejoin:miter;stroke:rgb(100%,0%,0%);stroke-opacity:1;stroke-miterlimit:10;" d="M 173.335938 126.933594 L 177.070312 116.96875 "/>
<path style="fill:none;stroke-width:1.2;stroke-linecap:butt;stroke-linejoin:miter;stroke:rgb(0%,0%,0%);stroke-opacity:1;stroke-miterlimit:10;" d="M 164.914062 135.140625 L 168.648438 125.175781 "/>
<path style="fill:none;stroke-width:1.2;stroke-linecap:butt;stroke-linejoin:miter;stroke:rgb(100%,0%,0%);stroke-opacity:1;stroke-miterlimit:10;" d="M 168.648438 125.175781 L 172.382812 115.214844 "/>
<path style="fill:none;stroke-width:1.2;stroke-linecap:butt;stroke-linejoin:miter;stroke:rgb(0%,0%,0%);stroke-opacity:1;stroke-miterlimit:10;" d="M 167.257812 136.019531 L 180.78125 152.453125 "/>
<path style=" stroke:none;fill-rule:nonzero;fill:rgb(100%,100%,100%);fill-opacity:1;" d="M 170.726562 110.59375 L 178.726562 110.59375 L 178.726562 121.59375 L 170.726562 121.59375 Z M 170.726562 110.59375 "/>
<g style="fill:rgb(100%,0%,0%);fill-opacity:1;">
  <use xlink:href="#glyph0-1" x="170.726562" y="119.256836"/>
</g>
<path style="fill:none;stroke-width:1.2;stroke-linecap:butt;stroke-linejoin:miter;stroke:rgb(0%,0%,0%);stroke-opacity:1;stroke-miterlimit:10;" d="M 180.78125 152.453125 L 177.046875 162.414062 "/>
<path style="fill:none;stroke-width:1.2;stroke-linecap:butt;stroke-linejoin:miter;stroke:rgb(0%,0%,100%);stroke-opacity:1;stroke-miterlimit:10;" d="M 177.046875 162.414062 L 173.3125 172.378906 "/>
<path style="fill:none;stroke-width:1.2;stroke-linecap:butt;stroke-linejoin:miter;stroke:rgb(0%,0%,0%);stroke-opacity:1;stroke-miterlimit:10;" d="M 175.34375 152.6875 L 172.355469 160.65625 "/>
<path style="fill:none;stroke-width:1.2;stroke-linecap:butt;stroke-linejoin:miter;stroke:rgb(0%,0%,100%);stroke-opacity:1;stroke-miterlimit:10;" d="M 172.355469 160.65625 L 169.371094 168.628906 "/>
<path style="fill:none;stroke-width:1.2;stroke-linecap:butt;stroke-linejoin:miter;stroke:rgb(0%,0%,0%);stroke-opacity:1;stroke-miterlimit:10;" d="M 180.78125 152.453125 L 201.773438 148.957031 "/>
<path style=" stroke:none;fill-rule:nonzero;fill:rgb(100%,100%,100%);fill-opacity:1;" d="M 170.3125 166.878906 L 177.3125 166.878906 L 177.3125 177.878906 L 170.3125 177.878906 Z M 170.3125 166.878906 "/>
<g style="fill:rgb(0%,0%,100%);fill-opacity:1;">
  <use xlink:href="#glyph0-2" x="170.3125" y="175.541992"/>
</g>
<path style="fill:none;stroke-width:1.2;stroke-linecap:butt;stroke-linejoin:miter;stroke:rgb(0%,0%,0%);stroke-opacity:1;stroke-miterlimit:10;" d="M 201.773438 148.957031 L 215.296875 165.386719 "/>
<path style="fill:none;stroke-width:1.2;stroke-linecap:butt;stroke-linejoin:miter;stroke:rgb(0%,0%,0%);stroke-opacity:1;stroke-miterlimit:10;" d="M 206.992188 147.417969 L 217.808594 160.5625 "/>
<path style="fill:none;stroke-width:1.2;stroke-linecap:butt;stroke-linejoin:miter;stroke:rgb(0%,0%,0%);stroke-opacity:1;stroke-miterlimit:10;" d="M 209.242188 129.027344 L 201.773438 148.957031 "/>
<path style="fill:none;stroke-width:1.2;stroke-linecap:butt;stroke-linejoin:miter;stroke:rgb(0%,0%,0%);stroke-opacity:1;stroke-miterlimit:10;" d="M 215.296875 165.386719 L 236.289062 161.894531 "/>
<path style="fill:none;stroke-width:1.2;stroke-linecap:butt;stroke-linejoin:miter;stroke:rgb(0%,0%,0%);stroke-opacity:1;stroke-miterlimit:10;" d="M 236.289062 161.894531 L 243.757812 141.964844 "/>
<path style="fill:none;stroke-width:1.2;stroke-linecap:butt;stroke-linejoin:miter;stroke:rgb(0%,0%,0%);stroke-opacity:1;stroke-miterlimit:10;" d="M 232.347656 158.144531 L 238.320312 142.203125 "/>
<path style="fill:none;stroke-width:1.2;stroke-linecap:butt;stroke-linejoin:miter;stroke:rgb(0%,0%,0%);stroke-opacity:1;stroke-miterlimit:10;" d="M 243.757812 141.964844 L 230.234375 125.535156 "/>
<path style="fill:none;stroke-width:1.2;stroke-linecap:butt;stroke-linejoin:miter;stroke:rgb(0%,0%,0%);stroke-opacity:1;stroke-miterlimit:10;" d="M 243.757812 141.964844 L 254.253906 140.21875 "/>
<path style="fill:none;stroke-width:1.2;stroke-linecap:butt;stroke-linejoin:miter;stroke:rgb(20%,80%,80%);stroke-opacity:1;stroke-miterlimit:10;" d="M 254.253906 140.21875 L 264.75 138.472656 "/>
<path style="fill:none;stroke-width:1.2;stroke-linecap:butt;stroke-linejoin:miter;stroke:rgb(0%,0%,0%);stroke-opacity:1;stroke-miterlimit:10;" d="M 230.234375 125.535156 L 209.242188 129.027344 "/>
<path style="fill:none;stroke-width:1.2;stroke-linecap:butt;stroke-linejoin:miter;stroke:rgb(0%,0%,0%);stroke-opacity:1;stroke-miterlimit:10;" d="M 228.957031 130.824219 L 212.164062 133.617188 "/>
<path style=" stroke:none;fill-rule:nonzero;fill:rgb(100%,100%,100%);fill-opacity:1;" d="M 261.75 132.972656 L 267.75 132.972656 L 267.75 143.972656 L 261.75 143.972656 Z M 261.75 132.972656 "/>
<g style="fill:rgb(20%,80%,80%);fill-opacity:1;">
  <use xlink:href="#glyph0-3" x="261.75" y="141.635742"/>
</g>
<path style="fill:none;stroke-width:1.2;stroke-linecap:butt;stroke-linejoin:miter;stroke:rgb(0%,0%,0%);stroke-opacity:1;stroke-miterlimit:10;" d="M 132.742188 123.082031 L 112.816406 115.613281 "/>
<path style="fill:none;stroke-width:1.2;stroke-linecap:butt;stroke-linejoin:miter;stroke:rgb(0%,0%,0%);stroke-opacity:1;stroke-miterlimit:10;" d="M 129.246094 102.089844 L 132.742188 123.082031 "/>
<path style="fill:none;stroke-width:1.2;stroke-linecap:butt;stroke-linejoin:miter;stroke:rgb(0%,0%,0%);stroke-opacity:1;stroke-miterlimit:10;" d="M 112.816406 115.613281 L 129.246094 102.089844 "/>
</g>
</svg>

<svg xmlns="http://www.w3.org/2000/svg" xmlns:xlink="http://www.w3.org/1999/xlink" width="300pt" height="300pt" viewBox="0 0 300 300"><defs><symbol overflow="visible"><path d="M.453 1.594v-7.938h4.5v7.938zm.5-.5h3.5v-6.938h-3.5zm0 0"/></symbol><symbol overflow="visible" id="a"><path d="M3.547-5.953c-.65 0-1.164.242-1.547.72-.375.48-.563 1.13-.563 1.952 0 .835.188 1.49.563 1.967.383.48.898.72 1.547.72.644 0 1.156-.24 1.53-.72.376-.476.564-1.132.564-1.968 0-.822-.187-1.474-.562-1.954-.375-.477-.887-.72-1.53-.72zm0-.734c.914 0 1.648.312 2.203.937.55.617.828 1.438.828 2.47 0 1.042-.277 1.87-.828 2.483-.555.617-1.29.922-2.203.922-.93 0-1.668-.305-2.22-.922C.774-1.41.5-2.237.5-3.28c0-1.033.273-1.853.828-2.47.55-.625 1.29-.938 2.22-.938zm0 0"/></symbol><symbol overflow="visible" id="b"><path d="M.89-6.563H2.08l2.906 5.485v-5.484h.86V0H4.656L1.75-5.484V0H.89zm0 0"/></symbol><symbol overflow="visible" id="c"><path d="M.89-6.563h3.766v.75h-2.89v1.938h2.61v.734h-2.61V0H.89zm0 0"/></symbol></defs><g><path fill="#fff" d="M0 0h300v300H0z"/><path d="M42.72 100.703l-3.736 9.965" stroke-width="1.2" stroke="#000" stroke-miterlimit="10" fill="none"/><path d="M38.984 110.668l-3.734 9.96M35.25 120.63l6.762 8.218" stroke-width="1.2" stroke="#f00" stroke-miterlimit="10" fill="none"/><path d="M42.012 128.848l6.76 8.214" stroke-width="1.2" stroke="#000" stroke-miterlimit="10" fill="none"/><path d="M31.25 115.13h8v11h-8zm0 0" fill="#fff"/><use xlink:href="#a" x="31.25" y="123.792" fill="#f00"/><path d="M48.773 137.063l20.993-3.497M51.695 141.652l16.793-2.797M41.305 156.992l7.468-19.93M69.766 133.566L83.29 150M83.29 150l-7.47 19.926M77.852 150.234l-5.973 15.942M75.82 169.926l-20.992 3.496M75.82 169.926l6.762 8.22" stroke-width="1.2" stroke="#000" stroke-miterlimit="10" fill="none"/><path d="M82.582 178.145l6.762 8.214" stroke-width="1.2" stroke="#f00" stroke-miterlimit="10" fill="none"/><path d="M54.828 173.422l-13.523-16.43M57.34 168.598l-10.817-13.145" stroke-width="1.2" stroke="#000" stroke-miterlimit="10" fill="none"/><path d="M89.344 186.36l10.496-1.747" stroke-width="1.2" stroke="#f00" stroke-miterlimit="10" fill="none"/><path d="M99.84 184.613l10.496-1.75" stroke-width="1.2" stroke="#000" stroke-miterlimit="10" fill="none"/><path d="M85.344 180.86h8v11h-8zm0 0" fill="#fff"/><use xlink:href="#a" x="85.344" y="189.522" fill="#f00"/><path d="M110.336 182.863l6.762 8.22" stroke-width="1.2" stroke="#000" stroke-miterlimit="10" fill="none"/><path d="M117.098 191.082l6.76 8.215" stroke-width="1.2" stroke="#00f" stroke-miterlimit="10" fill="none"/><path d="M115.555 181.324l5.406 6.574" stroke-width="1.2" stroke="#000" stroke-miterlimit="10" fill="none"/><path d="M120.96 187.898l5.41 6.575M117.805 162.938l-3.735 9.964" stroke-width="1.2" stroke="#00f" stroke-miterlimit="10" fill="none"/><path d="M114.07 172.902l-3.734 9.96" stroke-width="1.2" stroke="#000" stroke-miterlimit="10" fill="none"/><path d="M123.86 199.297l10.495-1.746" stroke-width="1.2" stroke="#00f" stroke-miterlimit="10" fill="none"/><path d="M134.355 197.55l10.497-1.75" stroke-width="1.2" stroke="#000" stroke-miterlimit="10" fill="none"/><path d="M120.86 193.797h7v11h-7zm0 0" fill="#fff"/><use xlink:href="#b" x="120.859" y="202.46" fill="#00f"/><path d="M144.852 195.8l7.468-19.925M140.906 192.05l5.977-15.94M152.32 175.875l-13.523-16.434" stroke-width="1.2" stroke="#000" stroke-miterlimit="10" fill="none"/><path d="M173.313 172.38l-10.497 1.745" stroke-width="1.2" stroke="#00f" stroke-miterlimit="10" fill="none"/><path d="M162.816 174.125l-10.496 1.75M138.797 159.44l-10.496 1.75" stroke-width="1.2" stroke="#000" stroke-miterlimit="10" fill="none"/><path d="M128.3 161.19l-10.495 1.748" stroke-width="1.2" stroke="#00f" stroke-miterlimit="10" fill="none"/><path d="M137.52 164.73l-8.4 1.4" stroke-width="1.2" stroke="#000" stroke-miterlimit="10" fill="none"/><path d="M129.12 166.13l-8.393 1.397" stroke-width="1.2" stroke="#00f" stroke-miterlimit="10" fill="none"/><path d="M138.797 159.44l3.734-9.963" stroke-width="1.2" stroke="#000" stroke-miterlimit="10" fill="none"/><path d="M142.53 149.477l3.736-9.96" stroke-width="1.2" stroke="#00f" stroke-miterlimit="10" fill="none"/><path d="M114.805 157.438h7v11h-7zm0 0" fill="#fff"/><use xlink:href="#b" x="114.805" y="166.101" fill="#00f"/><path d="M146.266 139.516l10.496-1.75" stroke-width="1.2" stroke="#00f" stroke-miterlimit="10" fill="none"/><path d="M156.762 137.766l10.496-1.746" stroke-width="1.2" stroke="#000" stroke-miterlimit="10" fill="none"/><path d="M146.266 139.516l-6.762-8.22" stroke-width="1.2" stroke="#00f" stroke-miterlimit="10" fill="none"/><path d="M139.504 131.297l-6.762-8.215" stroke-width="1.2" stroke="#000" stroke-miterlimit="10" fill="none"/><path d="M143.266 134.016h7v11h-7zm0 0" fill="#fff"/><use xlink:href="#b" x="143.266" y="142.679" fill="#00f"/><path d="M169.602 136.898l3.734-9.964" stroke-width="1.2" stroke="#000" stroke-miterlimit="10" fill="none"/><path d="M173.336 126.934l3.734-9.965" stroke-width="1.2" stroke="#f00" stroke-miterlimit="10" fill="none"/><path d="M164.914 135.14l3.734-9.964" stroke-width="1.2" stroke="#000" stroke-miterlimit="10" fill="none"/><path d="M168.648 125.176l3.735-9.96" stroke-width="1.2" stroke="#f00" stroke-miterlimit="10" fill="none"/><path d="M167.258 136.02l13.523 16.433" stroke-width="1.2" stroke="#000" stroke-miterlimit="10" fill="none"/><path d="M170.727 110.594h8v11h-8zm0 0" fill="#fff"/><use xlink:href="#a" x="170.727" y="119.257" fill="#f00"/><path d="M180.78 152.453l-3.733 9.96" stroke-width="1.2" stroke="#000" stroke-miterlimit="10" fill="none"/><path d="M177.047 162.414l-3.734 9.965" stroke-width="1.2" stroke="#00f" stroke-miterlimit="10" fill="none"/><path d="M175.344 152.688l-2.99 7.968" stroke-width="1.2" stroke="#000" stroke-miterlimit="10" fill="none"/><path d="M172.355 160.656l-2.984 7.973" stroke-width="1.2" stroke="#00f" stroke-miterlimit="10" fill="none"/><path d="M180.78 152.453l20.993-3.496" stroke-width="1.2" stroke="#000" stroke-miterlimit="10" fill="none"/><path d="M170.313 166.88h7v11h-7zm0 0" fill="#fff"/><use xlink:href="#b" x="170.313" y="175.542" fill="#00f"/><path d="M201.773 148.957l13.524 16.43M206.992 147.418l10.817 13.144M209.242 129.027l-7.47 19.93M215.297 165.387l20.992-3.492M236.29 161.895l7.468-19.93M232.348 158.145l5.972-15.942M243.758 141.965l-13.524-16.43M243.758 141.965l10.496-1.746" stroke-width="1.2" stroke="#000" stroke-miterlimit="10" fill="none"/><path d="M254.254 140.22l10.496-1.747" stroke-width="1.2" stroke="#3cc" stroke-miterlimit="10" fill="none"/><path d="M230.234 125.535l-20.992 3.492M228.957 130.824l-16.793 2.793" stroke-width="1.2" stroke="#000" stroke-miterlimit="10" fill="none"/><path d="M261.75 132.973h6v11h-6zm0 0" fill="#fff"/><use xlink:href="#c" x="261.75" y="141.636" fill="#3cc"/><path d="M132.742 123.082l-19.926-7.47M129.246 102.09l3.496 20.992M112.816 115.613l16.43-13.523" stroke-width="1.2" stroke="#000" stroke-miterlimit="10" fill="none"/></g></svg>
